X: 5443
T: Bunch Of Chickens
R: reel
M: 4/4
K: Gmajor
DE|G2D2E2D2|B,DGB d2Bd|edBd cBAG|FGAB c3/2 z/c/B/A|
G2D2E2D2|B,DGB d2Bd|edBd cBAG|FDEF G3/2 z/c/B/A|
G2D2E2D2|B,DGB d2d2|edBd cBAG|FGAB c2BA|
G2FG E2D2|B,DGB d2Bd|edBd ABcA|BGAF G4||
Bdde dBAG|Bddb g4|Bdde dBGA|A2AB c2c2|
Bdde dBAG|Bddb g4|Bdde dBGA|A2AF G2G2|
Bdde dBAG|Bddb g4|Bdde dBGA|A2AB c2c2|
Bcde dBAG|Bddb g4|Bdde dBAG|FGAF G2||

